X: 7544
T: Cock O' The North
R: jig
M: 6/8
K: Gmajor
|:d e2 d|B2 B BAG|B2 d e2 d|B2 B BAG|A2 A AGA|
B2 B BAG|B2 d e2 d|B2 B ABA|G2:|
|:d e2 f|g2 d e2 d|g2 d e2 d|B2 B BAG|A2 A ABd|
g2 d e2 d|g2 d e2 d|B2 B ABA|G2:|

